images/client-logos/intel.svg

<svg height="264" viewBox="0 0 400 264" width="400" xmlns="http://www.w3.org/2000/svg"><g fill="#e3e8f0"><path d="m189.865263 234.971228c-78.983158 7.286316-161.3059648-4.190175-172.8364911-65.915789-5.6407017-30.428772 8.24-62.695439 26.628772-82.7508776v-10.7094737c-33.1256141 29.0519303-51.07789478 65.8119303-40.7375439 109.2357893 13.2084211 55.696141 83.8435088 87.236491 191.687719 76.762807 42.687018-4.136842 98.512983-17.861754 137.350176-39.194386v-30.282105c-35.24772 21.001403-93.534737 38.349474-142.092632 42.854035zm208.06807-160.0996491c-18.734737-91.4673684-196.330526-97.2659649-310.8119295-27.5789473v7.6968421c114.3501755-58.78877195 276.5501755-58.43157896 291.3178945 25.8266667 4.95579 27.8722806-10.745263 56.9101756-38.794386 73.6301756v21.862456c33.741053-12.37614 68.350877-52.405614 58.288421-101.4371931z"/><path d="m325.57193 61.5522807h-20.708772v92.2329823c0 10.809123 5.225263 20.209123 20.708772 21.710877zm-246.5817546 33.6757895h-20.7466666l-.0112281 60.2589478c0 10.847017 5.2421053 20.237193 20.7578947 21.710877zm-20.7466666-30.8701755h20.6821052v19.6301755h-20.6821052zm144.7677192 111.8856143c-16.762105 0-23.855439-11.650527-23.855439-23.126316v-80.0098246h20.528422v22.1207018h15.46035v16.5810528h-15.46035v40.04c0 4.679298 2.221754 7.286316 7.101052 7.286316h8.359298v17.108772zm37.774737-34.087018c0 10.505965 6.569123 18.226667 18.192982 18.226667 9.108071 0 13.597193-2.527719 18.854737-7.720702l12.684912 12.083509c-8.132631 8.034386-16.653333 12.919298-31.691228 12.919298-19.645614 0-38.468772-10.722105-38.468772-41.981052 0-26.723509 16.44772-41.8294742 38.013334-41.8294742 21.922807 0 34.521403 17.6842102 34.521403 40.8975442v7.406315h-52.107368zm16.686316-31.323509c-7.026667 0-12.425263 3.618948-14.713685 8.500351-1.332631 2.934035-1.821052 5.220351-1.973333 8.825965h31.637895c-.4-8.825965-4.401404-17.326316-14.950877-17.326316zm-122.726316.976141c6.019649 0 8.522105 2.97614 8.522105 7.806316v56.74807h20.533334v-56.867369c0-11.522807-6.13965-24.2463154-24.170527-24.2463154l-42.4147366-.0217544v81.1354388h20.5410526v-64.554386zm213.107368-33.7761405c-4.564912 0-8.208421-3.6814036-8.208421-8.2407018 0-4.5375439 3.643509-8.24 8.208421-8.24 4.542456 0 8.272281 3.7024561 8.272281 8.24 0 4.5592982-3.730526 8.2407018-8.272281 8.2407018zm0-15.1066667c-3.762105 0-6.78807 3.1094737-6.78807 6.8659649 0 3.7782456 3.025965 6.8329825 6.78807 6.8329825 3.761404 0 6.884913-3.0547369 6.884913-6.8329825-.000702-3.7564912-3.122807-6.8659649-6.884913-6.8659649zm3.653334 11.8049123h-1.539649c-.135503-.0016218-.257693-.0818942-.312983-.2056141l-2.082807-3.5403508c-.065263-.0757895-.238596-.1621053-.29193-.1621053h-.953684v3.5291228c0 .1740351-.12.3796491-.346667.3796491h-1.388772c-.207017 0-.346666-.205614-.346666-.3796491v-8.9017544c0-.5207017.173333-.7347368.628772-.8.498947-.0540351 1.8-.1192982 2.527719-.1192982 2.569123 0 4.077193.7564912 4.077193 3.1389473v.1740351c0 1.471579-.726316 2.2736842-1.854035 2.631579l2.168421 3.6919298c.035497.0824628.05388.1712745.054035.2610526-.002807.1396492-.077895.3024562-.338947.3024562zm-1.994386-7.0610527c0-.9943859-.618246-1.3087719-1.941755-1.3087719h-1.311579v2.8238597c.206316 0 1.138948.0435087 1.311579.0435087 1.323509 0 1.941755-.4414035 1.941755-1.3845614z"/></g></svg>

<?xml version="1.0" encoding="UTF-8"?>
<svg width="400px" height="264px" viewBox="0 0 400 264" version="1.1" xmlns="http://www.w3.org/2000/svg" xmlns:xlink="http://www.w3.org/1999/xlink">
    <!-- Generator: Sketch 52.4 (67378) - http://www.bohemiancoding.com/sketch -->
    <title>intel@1x</title>
    <desc>Created with Sketch.</desc>
    <g id="Page-1" stroke="none" stroke-width="1" fill="none" fill-rule="evenodd">
        <g id="intel" fill="#E3E8F0" fill-rule="nonzero">
            <path d="M189.865263,234.971228 C110.882105,242.257544 28.5592982,230.781053 17.0287719,169.055439 C11.3880702,138.626667 25.2687719,106.36 43.6575439,86.3045614 L43.6575439,75.5950877 C10.5319298,104.647018 -7.42035088,141.407018 2.92,184.830877 C16.1284211,240.527018 86.7635088,272.067368 194.607719,261.593684 C237.294737,257.456842 293.120702,243.73193 331.957895,222.399298 L331.957895,192.117193 C296.710175,213.118596 238.423158,230.466667 189.865263,234.971228 Z M397.933333,74.8715789 C379.198596,-16.5957895 201.602807,-22.394386 87.1214035,47.2926316 L87.1214035,54.9894737 C201.471579,-3.79929825 363.671579,-3.44210526 378.439298,80.8161404 C383.395088,108.688421 367.694035,137.726316 339.644912,154.446316 L339.644912,176.308772 C373.385965,163.932632 407.995789,123.903158 397.933333,74.8715789 Z" id="Shape"></path>
            <path d="M325.57193,61.5522807 L304.863158,61.5522807 L304.863158,153.785263 C304.863158,164.594386 310.088421,173.994386 325.57193,175.49614 L325.57193,61.5522807 Z M78.9901754,95.2280702 L58.2435088,95.2280702 L58.2322807,155.487018 C58.2322807,166.334035 63.474386,175.724211 78.9901754,177.197895 L78.9901754,95.2280702 Z M58.2435088,64.3578947 L78.925614,64.3578947 L78.925614,83.9880702 L58.2435088,83.9880702 L58.2435088,64.3578947 Z M203.011228,176.243509 C186.249123,176.243509 179.155789,164.592982 179.155789,153.117193 L179.155789,73.1073684 L199.684211,73.1073684 L199.684211,95.2280702 L215.144561,95.2280702 L215.144561,111.809123 L199.684211,111.809123 L199.684211,151.849123 C199.684211,156.528421 201.905965,159.135439 206.785263,159.135439 L215.144561,159.135439 L215.144561,176.244211 L203.011228,176.243509 Z M240.785965,142.156491 C240.785965,152.662456 247.355088,160.383158 258.978947,160.383158 C268.087018,160.383158 272.57614,157.855439 277.833684,152.662456 L290.518596,164.745965 C282.385965,172.780351 273.865263,177.665263 258.827368,177.665263 C239.181754,177.665263 220.358596,166.943158 220.358596,135.684211 C220.358596,108.960702 236.806316,93.8547368 258.37193,93.8547368 C280.294737,93.8547368 292.893333,111.538947 292.893333,134.752281 L292.893333,142.158596 L240.785965,142.158596 L240.785965,142.156491 Z M257.472281,110.832982 C250.445614,110.832982 245.047018,114.45193 242.758596,119.333333 C241.425965,122.267368 240.937544,124.553684 240.785263,128.159298 L272.423158,128.159298 C272.023158,119.333333 268.021754,110.832982 257.472281,110.832982 Z M134.745965,111.809123 C140.765614,111.809123 143.26807,114.785263 143.26807,119.615439 L143.26807,176.363509 L163.801404,176.363509 L163.801404,119.49614 C163.801404,107.973333 157.661754,95.2498246 139.630877,95.2498246 L97.2161404,95.2280702 L97.2161404,176.363509 L117.757193,176.363509 L117.757193,111.809123 L134.745965,111.809123 Z M347.853333,78.0329825 C343.288421,78.0329825 339.644912,74.3515789 339.644912,69.7922807 C339.644912,65.2547368 343.288421,61.5522807 347.853333,61.5522807 C352.395789,61.5522807 356.125614,65.2547368 356.125614,69.7922807 C356.125614,74.3515789 352.395088,78.0329825 347.853333,78.0329825 Z M347.853333,62.9263158 C344.091228,62.9263158 341.065263,66.0357895 341.065263,69.7922807 C341.065263,73.5705263 344.091228,76.6252632 347.853333,76.6252632 C351.614737,76.6252632 354.738246,73.5705263 354.738246,69.7922807 C354.737544,66.0357895 351.615439,62.9263158 347.853333,62.9263158 Z M351.506667,74.7312281 L349.967018,74.7312281 C349.831515,74.7296063 349.709325,74.6493339 349.654035,74.525614 L347.571228,70.9852632 C347.505965,70.9094737 347.332632,70.8231579 347.279298,70.8231579 L346.325614,70.8231579 L346.325614,74.3522807 C346.325614,74.5263158 346.205614,74.7319298 345.978947,74.7319298 L344.590175,74.7319298 C344.383158,74.7319298 344.243509,74.5263158 344.243509,74.3522807 L344.243509,65.4505263 C344.243509,64.9298246 344.416842,64.7157895 344.872281,64.6505263 C345.371228,64.5964912 346.672281,64.5312281 347.4,64.5312281 C349.969123,64.5312281 351.477193,65.2877193 351.477193,67.6701754 L351.477193,67.8442105 C351.477193,69.3157895 350.750877,70.1178947 349.623158,70.4757895 L351.791579,74.1677193 C351.827076,74.2501821 351.845459,74.3389938 351.845614,74.4287719 C351.842807,74.5684211 351.767719,74.7312281 351.506667,74.7312281 Z M349.512281,67.6701754 C349.512281,66.6757895 348.894035,66.3614035 347.570526,66.3614035 L346.258947,66.3614035 L346.258947,69.1852632 C346.465263,69.1852632 347.397895,69.2287719 347.570526,69.2287719 C348.894035,69.2287719 349.512281,68.7873684 349.512281,67.8442105 L349.512281,67.6701754 Z" id="Shape"></path>
        </g>
    </g>
</svg>
